static/images/pieces/shogi/cto/0KE.svg

<?xml version="1.0" encoding="UTF-8" standalone="no"?>
<svg
   viewBox="0 0 60 60"
   version="1.1"
   id="svg6"
   sodipodi:docname="0KE.svg"
   inkscape:version="1.3 (0e150ed6c4, 2023-07-21)"
   xmlns:inkscape="http://www.inkscape.org/namespaces/inkscape"
   xmlns:sodipodi="http://sodipodi.sourceforge.net/DTD/sodipodi-0.dtd"
   xmlns="http://www.w3.org/2000/svg"
   xmlns:svg="http://www.w3.org/2000/svg">
  <sodipodi:namedview
     id="namedview6"
     pagecolor="#ffffff"
     bordercolor="#666666"
     borderopacity="1.0"
     inkscape:showpageshadow="2"
     inkscape:pageopacity="0.0"
     inkscape:pagecheckerboard="0"
     inkscape:deskcolor="#d1d1d1"
     inkscape:zoom="10.759808"
     inkscape:cx="0.13940769"
     inkscape:cy="57.343031"
     inkscape:window-width="3840"
     inkscape:window-height="2054"
     inkscape:window-x="-11"
     inkscape:window-y="-11"
     inkscape:window-maximized="1"
     inkscape:current-layer="g1" />
  <defs
     id="defs1">
    <filter
       id="0KE_svg__a"
       x="-0.13487665"
       y="-0.11073416"
       width="1.3197505"
       height="1.2626339">
      <feGaussianBlur
         in="SourceAlpha"
         result="blur"
         stdDeviation="2"
         id="feGaussianBlur1" />
      <feOffset
         dx="2"
         dy="2"
         result="offsetBlur"
         id="feOffset1" />
      <feBlend
         in="SourceGraphic"
         in2="offsetBlur"
         id="feBlend1" />
    </filter>
  </defs>
  <g
     filter="url(#0KE_svg__a)"
     transform="translate(40.406 1.058)scale(.95625)"
     id="g1">
    <path
       fill="#cdbc68"
       d="m -23.798,12.511373 -7.051,44.16196 H 9.085 l -6.79,-44.16196 c -4.418,-1.298 -8.7610915,-2.6000397 -13.177092,-3.8960397 z"
       id="path1"
       style="fill:#fdeb98;fill-opacity:1;stroke:#333333"
       sodipodi:nodetypes="cccccc" />
  </g>
  <path
     id="path7388-6"
     style="color:#000000;font-style:normal;font-variant:normal;font-weight:normal;font-stretch:normal;font-size:medium;line-height:normal;font-family:sans-serif;font-variant-ligatures:normal;font-variant-position:normal;font-variant-caps:normal;font-variant-numeric:normal;font-variant-alternates:normal;font-variant-east-asian:normal;font-feature-settings:normal;font-variation-settings:normal;text-indent:0;text-align:start;text-decoration:none;text-decoration-line:none;text-decoration-style:solid;text-decoration-color:#000000;letter-spacing:normal;word-spacing:normal;text-transform:none;writing-mode:lr-tb;direction:ltr;text-orientation:mixed;dominant-baseline:auto;baseline-shift:baseline;text-anchor:start;white-space:normal;shape-padding:0;shape-margin:0;inline-size:0;clip-rule:nonzero;display:inline;overflow:visible;visibility:visible;opacity:0.99;isolation:auto;mix-blend-mode:normal;color-interpolation:sRGB;color-interpolation-filters:linearRGB;solid-color:#000000;solid-opacity:1;vector-effect:none;fill:#000000;fill-opacity:0.992157;fill-rule:nonzero;stroke:none;stroke-width:0.578432;stroke-linecap:butt;stroke-linejoin:miter;stroke-miterlimit:4;stroke-dasharray:none;stroke-dashoffset:0;stroke-opacity:1;color-rendering:auto;image-rendering:auto;shape-rendering:auto;text-rendering:auto;enable-background:accumulate;stop-color:#000000"
     d="m 28.456568,16.302945 -0.252286,0.224384 c -0.672896,0.598992 -0.962221,1.356232 -1.102671,2.126422 -0.122964,0.673958 -0.144475,1.360322 -0.213417,2.023467 l -0.5355,-0.07102 -2.647143,-3.122263 -0.200334,0.376956 c -0.765059,1.443244 -0.479767,3.031142 -0.472802,4.467119 -1.142025,2.35811 -1.940398,4.254165 -1.812217,6.46428 -1.516262,1.699602 -2.863977,3.518994 -3.74133,5.634015 l -0.0094,0.0209 -0.0047,0.0225 c -0.250574,1.049935 -0.489914,2.167148 -0.05254,3.304097 l 0.03786,0.09852 0.57878,0.321171 c 0.338456,0.701325 0.580725,1.19049 0.99815,1.48491 0.368042,0.259887 0.83058,0.308489 1.462464,0.254402 l 1.95464,-2.746188 0.785351,0.560217 -1.854778,2.605385 0.151689,0.368509 0.25437,-0.082 c 1.291388,-0.415838 1.9799,-1.010906 2.467609,-1.738734 0.474509,-0.708096 0.788159,-1.522951 1.390501,-2.470749 1.911284,-0.884984 2.779792,-1.350577 4.675275,-2.061371 l 0.02321,-0.0085 -0.05744,-0.03326 c 0.270015,-0.471233 0.567529,-1.525106 0.7521,-2.503994 0.09291,-0.489458 0.162331,-0.965769 0.204131,-1.356503 0.04155,-0.390904 0.05011,-0.717181 0.04155,-0.808587 l 0.960241,-0.09217 c 0.02566,0.260318 0.002,0.583 -0.044,1.003619 -0.04522,0.420482 -0.118566,0.918043 -0.215987,1.432294 -0.181271,0.963018 -0.427452,1.959882 -0.789263,2.661855 l 0.05012,0.223541 c 0,0.01968 0.01466,0.299193 0.022,0.635296 0.0077,0.347802 -0.0046,0.771536 -0.01834,0.837236 l -0.0046,0.01932 v 0.01858 c -0.122234,1.861368 -1.866401,4.293936 -3.260792,5.497054 -2.029184,1.547494 -2.466398,3.085608 -2.752402,5.515601 l -0.02199,0.192715 0.17027,0.09387 c 4.866706,2.700965 8.535761,3.43755 11.557419,3.099825 3.021643,-0.33807 5.369192,-1.743642 7.603324,-3.237551 l 0.15548,-0.104389 -0.03299,-0.185531 c -0.193988,-1.109671 -0.349953,-1.915954 -0.768359,-3.448794 l -0.0017,-0.0032 v -0.0033 c -1.061027,-3.565367 -1.255085,-5.784845 -1.41636,-11.978277 v -0.0046 -0.0061 c -0.155909,-2.362329 -1.420047,-5.127067 -3.40158,-7.291055 -1.941127,-2.119767 -4.596474,-3.642376 -7.583977,-3.557905 z m 4.812241,7.123562 c 0.15768,0.01246 0.303383,0.05537 0.449571,0.09767 0.291527,0.08495 0.585745,0.21256 0.878979,0.363008 0.5866,0.300877 1.156206,0.679089 1.536769,1.000481 2.196785,1.855281 3.434605,3.601115 3.957984,6.723511 l 0.0022,0.01321 0.0022,0.01321 c 0.602489,4.794285 0.213052,10.564008 1.88034,14.265695 l -1.15998,0.522319 c -1.889295,-4.194248 -1.408726,-10.027547 -1.98227,-14.613505 -0.48607,-2.888013 -1.433234,-4.189144 -3.521537,-5.952813 -0.266715,-0.225235 -0.806009,-0.587817 -1.296897,-0.83957 -0.245077,-0.125924 -0.482822,-0.225241 -0.653091,-0.274682 -0.170276,-0.04949 -0.270016,-0.0069 -0.14876,-0.05416 l -0.465096,-1.183902 c 0.192271,-0.07518 0.361318,-0.09253 0.519245,-0.08031 z m -8.171285,2.233962 c 0.09291,0 0.189341,0.0022 0.291162,0.0085 l 0.543205,0.03325 -0.153402,0.521524 c -0.181761,0.620502 -0.217575,1.139225 -0.498347,1.611818 -0.140323,0.236659 -0.372326,0.447567 -0.664704,0.554829 -0.292503,0.106956 -0.626692,0.128884 -1.039228,0.09681 l -0.540151,-0.04267 0.158419,-0.517681 c 0.186772,-0.607302 0.23163,-1.121199 0.512275,-1.588631 0.140324,-0.2341 0.366827,-0.444136 0.655417,-0.555574 0.216352,-0.08325 0.456662,-0.120035 0.735108,-0.122113 z m -5.493161,8.787997 0.556283,0.588833 c -0.469129,0.443889 -0.840722,0.723533 -0.978116,0.891423 -0.06844,0.08409 -0.07578,0.114899 -0.07824,0.149172 -0.0023,0.03435 0.0054,0.108666 0.08435,0.255261 l -0.714209,0.381598 c -0.12223,-0.227353 -0.193986,-0.45632 -0.177111,-0.693309 0.01711,-0.237093 0.127608,-0.444398 0.259866,-0.605872 0.264145,-0.322865 0.617524,-0.561 1.046925,-0.967241 z"
     sodipodi:nodetypes="ccscccccccccsccccccccsscccccsccccccscccccccsccsccccccsccccscccccccscsccccsscccccccccssccsccccccc" />
</svg>

<?xml version="1.0" encoding="UTF-8" standalone="no"?>
<svg
   viewBox="0 0 60 60"
   version="1.1"
   id="svg6"
   sodipodi:docname="0KE.svg"
   inkscape:version="1.3 (0e150ed6c4, 2023-07-21)"
   xml:space="preserve"
   xmlns:inkscape="http://www.inkscape.org/namespaces/inkscape"
   xmlns:sodipodi="http://sodipodi.sourceforge.net/DTD/sodipodi-0.dtd"
   xmlns="http://www.w3.org/2000/svg"
   xmlns:svg="http://www.w3.org/2000/svg"><sodipodi:namedview
     id="namedview6"
     pagecolor="#ffffff"
     bordercolor="#666666"
     borderopacity="1.0"
     inkscape:showpageshadow="2"
     inkscape:pageopacity="0.0"
     inkscape:pagecheckerboard="0"
     inkscape:deskcolor="#d1d1d1"
     inkscape:zoom="15.216666"
     inkscape:cx="64.041622"
     inkscape:cy="10.1862"
     inkscape:window-width="3840"
     inkscape:window-height="2054"
     inkscape:window-x="3829"
     inkscape:window-y="-11"
     inkscape:window-maximized="1"
     inkscape:current-layer="svg6"
     showgrid="false" /><defs
     id="defs1"><filter
       id="0KE_svg__a"
       x="-0.13554818"
       y="-0.11123077"
       width="1.3210896"
       height="1.2636065"><feGaussianBlur
         in="SourceAlpha"
         result="blur"
         stdDeviation="2"
         id="feGaussianBlur1" /><feOffset
         dx="2"
         dy="2"
         result="offsetBlur"
         id="feOffset1" /><feBlend
         in="SourceGraphic"
         in2="offsetBlur"
         id="feBlend1" /></filter></defs><g
     filter="url(#0KE_svg__a)"
     transform="translate(40.406 1.058)scale(.95625)"
     id="g1"><path
       fill="#cdbc68"
       d="m -23.798,12.488498 -7.051,44.16196 H 9.085 l -6.79,-44.16196 c -4.418,-1.298 -8.7610915,-2.6000402 -13.177092,-3.8960402 z"
       id="path1"
       style="fill:#e9dbc9;fill-opacity:1;stroke:#333333;stroke-width:1.04575;stroke-dasharray:none"
       sodipodi:nodetypes="cccccc" /></g><path
     id="path7388-6"
     style="color:#000000;font-style:normal;font-variant:normal;font-weight:normal;font-stretch:normal;font-size:medium;line-height:normal;font-family:sans-serif;font-variant-ligatures:normal;font-variant-position:normal;font-variant-caps:normal;font-variant-numeric:normal;font-variant-alternates:normal;font-variant-east-asian:normal;font-feature-settings:normal;font-variation-settings:normal;text-indent:0;text-align:start;text-decoration:none;text-decoration-line:none;text-decoration-style:solid;text-decoration-color:#000000;letter-spacing:normal;word-spacing:normal;text-transform:none;writing-mode:lr-tb;direction:ltr;text-orientation:mixed;dominant-baseline:auto;baseline-shift:baseline;text-anchor:start;white-space:normal;shape-padding:0;shape-margin:0;inline-size:0;clip-rule:nonzero;display:inline;overflow:visible;visibility:visible;opacity:0.99;isolation:auto;mix-blend-mode:normal;color-interpolation:sRGB;color-interpolation-filters:linearRGB;solid-color:#000000;solid-opacity:1;vector-effect:none;fill:#000000;fill-opacity:0.992157;fill-rule:nonzero;stroke:none;stroke-width:0.578432;stroke-linecap:butt;stroke-linejoin:miter;stroke-miterlimit:4;stroke-dasharray:none;stroke-dashoffset:0;stroke-opacity:1;color-rendering:auto;image-rendering:auto;shape-rendering:auto;text-rendering:auto;enable-background:accumulate;stop-color:#000000"
     d="M 28.457031 16.302734 L 28.205078 16.527344 C 27.532185 17.126333 27.242012 17.88411 27.101562 18.654297 C 26.978601 19.328252 26.957614 20.014592 26.888672 20.677734 L 26.353516 20.605469 L 23.705078 17.484375 L 23.505859 17.861328 C 22.740803 19.304569 23.026238 20.892151 23.033203 22.328125 C 21.891181 24.686229 21.092522 26.58286 21.220703 28.792969 C 19.704447 30.492565 18.355866 32.310766 17.478516 34.425781 L 17.46875 34.447266 L 17.464844 34.46875 C 17.21427 35.518682 16.974733 36.636492 17.412109 37.773438 L 17.449219 37.873047 L 18.029297 38.193359 C 18.367753 38.894684 18.609919 39.383317 19.027344 39.677734 C 19.395383 39.937621 19.858353 39.987681 20.490234 39.933594 L 20.960938 39.271484 C 21.344271 39.271807 21.722454 39.295511 22.095703 39.337891 L 21.375 40.351562 L 21.527344 40.720703 L 21.78125 40.638672 C 22.613097 40.370809 23.191851 40.027223 23.630859 39.623047 C 25.303112 40.0563 26.837937 40.843371 28.169922 41.712891 C 28.105892 41.771891 28.039355 41.840352 27.976562 41.894531 C 25.947387 43.442022 25.510613 44.980172 25.224609 47.410156 L 25.203125 47.601562 L 25.373047 47.695312 C 30.239738 50.396271 33.908039 51.132647 36.929688 50.794922 C 39.951319 50.456852 42.299077 49.052497 44.533203 47.558594 L 44.689453 47.453125 L 44.65625 47.267578 C 44.462278 46.157919 44.307075 45.353149 43.888672 43.820312 L 43.886719 43.816406 L 43.886719 43.8125 C 42.825742 40.247145 42.631978 38.027398 42.470703 31.833984 L 42.470703 31.830078 L 42.470703 31.824219 C 42.314794 29.461931 41.049886 26.697185 39.068359 24.533203 C 37.127238 22.413442 34.471869 20.890138 31.484375 20.974609 L 28.457031 16.302734 z M 33.267578 23.425781 L 33.269531 23.425781 C 33.427211 23.438241 33.572562 23.481138 33.71875 23.523438 C 34.010277 23.608387 34.304425 23.736271 34.597656 23.886719 C 35.184256 24.187593 35.754203 24.565327 36.134766 24.886719 C 38.331542 26.741994 39.568418 28.488941 40.091797 31.611328 L 40.09375 31.625 L 40.095703 31.636719 C 40.698192 36.430989 40.30928 42.200666 41.976562 45.902344 L 40.816406 46.425781 C 40.530402 45.791161 40.298595 45.119583 40.109375 44.419922 C 39.048031 40.495478 39.320747 35.704556 38.833984 31.8125 C 38.347917 28.924496 37.400797 27.623038 35.3125 25.859375 C 35.045785 25.63414 34.506513 25.271284 34.015625 25.019531 C 33.770548 24.893607 33.53355 24.793582 33.363281 24.744141 C 33.193005 24.694651 33.093588 24.738636 33.214844 24.691406 L 32.75 23.507812 C 32.942271 23.432633 33.109651 23.413561 33.267578 23.425781 z M 25.097656 25.660156 C 25.190566 25.660156 25.286851 25.663622 25.388672 25.669922 L 25.931641 25.703125 L 25.779297 26.224609 C 25.597536 26.845111 25.560069 27.363345 25.279297 27.835938 C 25.138974 28.072594 24.907612 28.283363 24.615234 28.390625 C 24.322734 28.497581 23.988705 28.518405 23.576172 28.486328 L 23.035156 28.445312 L 23.195312 27.927734 C 23.382084 27.320435 23.426389 26.80532 23.707031 26.337891 C 23.847355 26.103791 24.072738 25.894641 24.361328 25.783203 C 24.57768 25.699953 24.819213 25.662234 25.097656 25.660156 z M 32.238281 29.564453 C 32.263941 29.824771 32.239379 30.147743 32.193359 30.568359 C 32.148139 30.988841 32.075937 31.485752 31.978516 32 C 31.797245 32.963015 31.551264 33.960139 31.189453 34.662109 L 31.238281 34.886719 C 31.238281 34.906399 31.254379 35.185384 31.261719 35.521484 C 31.269419 35.869286 31.255917 36.293675 31.242188 36.359375 L 31.238281 36.378906 L 31.238281 36.396484 C 31.142291 37.858262 30.045926 39.662935 28.904297 40.957031 C 32.297257 40.606665 35.648712 41.974343 36.710938 48.660156 C 32.492848 47.37073 29.359216 46.381458 28.113281 41.066406 C 28.356869 41.023526 28.601578 40.989506 28.845703 40.962891 C 27.535368 40.093521 26.011786 39.278167 24.322266 38.777344 C 24.754789 38.097345 25.069837 37.324759 25.638672 36.429688 C 27.54995 35.544704 28.418976 35.077979 30.314453 34.367188 L 30.337891 34.359375 L 30.279297 34.326172 C 30.549312 33.854939 30.846679 32.801151 31.03125 31.822266 C 31.12416 31.332808 31.194528 30.855575 31.236328 30.464844 C 31.277878 30.07394 31.285904 29.747656 31.277344 29.65625 L 32.238281 29.564453 z M 19.603516 34.449219 L 20.160156 35.037109 C 19.69103 35.480998 19.319032 35.761798 19.181641 35.929688 C 19.113201 36.013777 19.105976 36.043852 19.103516 36.078125 C 19.101216 36.112475 19.110513 36.187392 19.189453 36.333984 L 18.474609 36.714844 C 18.352379 36.487491 18.28 36.258473 18.296875 36.021484 C 18.313985 35.784394 18.424383 35.577487 18.556641 35.416016 C 18.820783 35.093151 19.174115 34.855457 19.603516 34.449219 z M 22.443359 37.1875 L 23.228516 37.746094 L 22.751953 38.417969 C 22.392376 38.360149 22.027421 38.318489 21.65625 38.294922 L 22.443359 37.1875 z M 28.892578 41.689453 L 29.535156 42.519531 C 33.142881 44.647735 33.982052 45.843421 34.84375 47.136719 L 35.765625 47.761719 L 35.517578 46.775391 C 34.596016 45.392244 33.590621 44.079119 29.890625 41.896484 L 28.892578 41.689453 z " /></svg>
